src/assets/selectIcons/strumento_8.svg

<svg xmlns="http://www.w3.org/2000/svg" viewBox="0 0 512 512"><path d="M0 0h512v512H0z"/><path fill="#fff" d="M459.36 43.126c-52.275 8.712-112.776 46.666-171.8 96.906-52.19 44.424-102.796 98.724-142.838 152.305l18.672 15.12c13.228-17.734 27.73-35.612 43.078-53.196l-7.84-8.214 13.02-12.43c4.962 5.48 10.23 10.624 15.588 15.98-11.517 38.772-39.2 79.74-72.682 112.528 4.815 3.77 9.285 9.016 11.818 13.726 36.024-34.846 65.698-78.494 78.332-122.087 43.844-16.906 66.78-48.94 89.637-90.875 59.482-8.695 102.554-40.688 126.98-69.985 5.128 13.79 10.162 27.596 12.97 41.098 3.867 18.583 3.758 36.084-4.987 53.32-15.826 31.187-45.75 46.012-69.05 61.634-11.65 7.81-22.287 15.994-26.587 28.74-4.3 12.746-.336 27.582 11.634 44.29 12.763 17.813 31.426 30.763 44.025 43.56 3.362 3.415 6.242 6.77 8.558 10.064 2.087-.42 4.24-.644 6.445-.644 5.573 0 10.836 1.412 15.457 3.888-.13-.373-.255-.748-.394-1.117-3.633-9.606-10.07-17.534-17.24-24.818-14.343-14.568-32.06-27.236-42.22-41.418-10.282-14.353-11.195-22.164-9.208-28.054 1.987-5.89 8.8-12.334 19.553-19.543 21.504-14.418 56.188-31.21 75.08-68.44 10.993-21.667 10.92-44.166 6.56-65.128-7.15-32.718-19.584-59.43-32.56-87.21zm-12.798 13.172l7.666 16.46c-19.566 27.352-61.308 63.002-121.12 72.202l-4.183-7.598c37.565-29.052 74.82-51.47 106.934-63.097l-4.896-11.07zm-138.37 82.662c3.517 5.194 7.076 10.895 9.946 16.133-21.795 39.982-40.676 66.46-78.537 81.41l-8.94-8.94c22.38-23.795 48.04-48.565 71.984-69.115l-5.57-7.723zM132.14 305.31l-8.81 10.88 23.316 18.88 8.808-10.882zM112 330.18L17.338 447.088c.033.307.18 1.134.828 2.404 1.395 2.734 4.697 6.665 8.582 9.812 3.886 3.146 8.42 5.56 11.383 6.355 1.378.37 2.216.34 2.524.307l49.72-61.403c-2.815-11.952-.31-25.042 7.965-35.26 8.273-10.218 20.556-15.395 32.833-15.127l4.143-5.115zm17.99 41.866c-6.608.054-13.126 2.98-17.66 8.58-8.06 9.955-6.555 24.29 3.4 32.35 9.955 8.06 24.29 6.552 32.35-3.403.47-.58.904-1.178 1.31-1.787l17.537 3.23-7.062 38.354 17.7 3.26 10.325-56.057-35.19-6.48c-1.09-4.877-3.79-9.44-8.023-12.868-4.355-3.526-9.548-5.222-14.687-5.18zm314.343 20.918c-8.39 0-15 6.61-15 15 0 5.16 2.507 9.642 6.385 12.332-.485 4.442-1.343 9.902-2.932 15.05-3.453 10.063-8.195 17.16-17.492 15.186-7.036-2.698-7.764-9.982-7.37-16.176l12.636-.213-26.694-40.82c-1.9 6.86-5.49 34.502-3.615 50.008.625 4.574 2.016 9.724 5.355 14.466 3.338 4.742 8.884 8.768 15.767 10.304 10.428 2.328 20.3-.8 26.63-6.65 6.33-5.85 9.723-13.474 11.984-20.795 2.397-7.764 3.458-15.483 3.94-21.088 3.32-2.733 5.407-6.887 5.407-11.603 0-8.39-6.61-15-15-15z"/></svg>

<?xml version="1.0" encoding="UTF-8" standalone="no"?>
<!DOCTYPE svg PUBLIC "-//W3C//DTD SVG 1.1//EN" "http://www.w3.org/Graphics/SVG/1.1/DTD/svg11.dtd">
<svg width="100%" height="100%" viewBox="0 0 512 512" version="1.1" xmlns="http://www.w3.org/2000/svg" xmlns:xlink="http://www.w3.org/1999/xlink" xml:space="preserve" xmlns:serif="http://www.serif.com/" style="fill-rule:evenodd;clip-rule:evenodd;stroke-linejoin:round;stroke-miterlimit:2;">
    <rect x="0" y="0" width="512" height="512" style="fill-rule:nonzero;"/>
    <path d="M459.36,43.126C407.085,51.838 346.584,89.792 287.56,140.032C235.37,184.456 184.764,238.756 144.722,292.337L163.394,307.457C176.622,289.723 191.124,271.845 206.472,254.261L198.632,246.047L211.652,233.617C216.614,239.097 221.882,244.241 227.24,249.597C215.723,288.369 188.04,329.337 154.558,362.125C159.373,365.895 163.843,371.141 166.376,375.851C202.4,341.005 232.074,297.357 244.708,253.764C288.552,236.858 311.488,204.824 334.345,162.889C393.827,154.194 436.899,122.201 461.325,92.904C466.453,106.694 471.487,120.5 474.295,134.002C478.162,152.585 478.053,170.086 469.308,187.322C453.482,218.509 423.558,233.334 400.258,248.956C388.608,256.766 377.971,264.95 373.671,277.696C369.371,290.442 373.335,305.278 385.305,321.986C398.068,339.799 416.731,352.749 429.33,365.546C432.692,368.961 435.572,372.316 437.888,375.61C439.975,375.19 442.128,374.966 444.333,374.966C449.906,374.966 455.169,376.378 459.79,378.854C459.66,378.481 459.535,378.106 459.396,377.737C455.763,368.131 449.326,360.203 442.156,352.919C427.813,338.351 410.096,325.683 399.936,311.501C389.654,297.148 388.741,289.337 390.728,283.447C392.715,277.557 399.528,271.113 410.281,263.904C431.785,249.486 466.469,232.694 485.361,195.464C496.354,173.797 496.281,151.298 491.921,130.336C484.771,97.618 472.337,70.906 459.361,43.126L459.36,43.126ZM446.562,56.298L454.228,72.758C434.662,100.11 392.92,135.76 333.108,144.96L328.925,137.362C366.49,108.31 403.745,85.892 435.859,74.265L430.963,63.195L446.562,56.298ZM308.192,138.96C311.709,144.154 315.268,149.855 318.138,155.093C296.343,195.075 277.462,221.553 239.601,236.503L230.661,227.563C253.041,203.768 278.701,178.998 302.645,158.448L297.075,150.725L308.192,138.96Z" style="fill:rgb(190,196,160);fill-rule:nonzero;"/>
    <path d="M132.14,305.31L155.454,324.188L146.646,335.07L123.33,316.19L132.14,305.31ZM112,330.18L135.316,349.061L131.173,354.176C118.896,353.908 106.613,359.085 98.34,369.303C90.065,379.521 87.56,392.611 90.375,404.563L40.655,465.966C40.347,465.999 39.509,466.029 38.131,465.659C35.168,464.864 30.634,462.45 26.748,459.304C22.863,456.157 19.561,452.226 18.166,449.492C17.518,448.222 17.371,447.395 17.338,447.088L112,330.18Z" style="fill:rgb(150,100,65);"/>
    <path d="M129.99,372.045C135.129,372.003 140.322,373.699 144.677,377.225C148.91,380.653 151.61,385.216 152.7,390.093L187.89,396.573L177.565,452.63L159.865,449.37L166.927,411.016L149.39,407.786C148.984,408.395 148.55,408.993 148.08,409.573C140.02,419.528 125.685,421.036 115.73,412.976C105.775,404.916 104.27,390.581 112.33,380.626C116.864,375.026 123.382,372.099 129.99,372.045ZM444.333,392.964C452.723,392.964 459.334,399.575 459.334,407.965C459.334,412.681 457.247,416.835 453.927,419.568C453.445,425.173 452.384,432.892 449.987,440.656C447.726,447.977 444.333,455.601 438.003,461.451C431.673,467.301 421.801,470.429 411.373,468.101C404.49,466.565 398.944,462.539 395.606,457.797C392.267,453.055 390.876,447.905 390.251,443.331C388.376,427.825 391.966,400.183 393.866,393.323L420.56,434.143L407.924,434.356C407.53,440.55 408.258,447.834 415.294,450.532C424.591,452.506 429.333,445.409 432.786,435.346C434.375,430.198 435.233,424.738 435.718,420.296C431.84,417.606 429.333,413.124 429.333,407.964C429.333,399.574 435.943,392.964 444.333,392.964Z" style="fill:rgb(206,204,204);"/>
</svg>
